src/main/resources/icons/OsmorcIdeaIcons/icons/bndTest.svg

<svg xmlns="http://www.w3.org/2000/svg" width="16" height="16" viewBox="0 0 16 16">
  <g fill="none" fill-rule="evenodd">
    <path fill="#941100" fill-rule="nonzero" d="M15,10.5170556 L13.9323379,9.44210968 C13.9723577,9.27764312 13.9954664,9.10517058 13.9993979,8.92727273 L14,5 L12.9811321,5 L12.9811321,8.48441447 L12.5,8 L11.6593181,8 C11.7944427,7.89665775 11.9570763,7.83636364 12.1320755,7.83636364 C12.3232161,7.83636364 12.4996048,7.90829346 12.6415094,8.02968125 L12.6415094,6.82552992 C12.4795666,6.77336713 12.3086833,6.74545455 12.1320755,6.74545455 C11.3353811,6.74545455 10.6551806,7.31347479 10.3866942,8.11330582 L9.58490566,8.91509434 L9.58490566,8.00385457 C9.58490566,7.30885943 9.02150078,6.74545455 8.32650564,6.74545455 L7.67349436,6.74545455 C6.97849922,6.74545455 6.41509434,7.30885943 6.41509434,8.00385457 L6.41509434,10.8909091 L7.43396226,10.8909091 L7.43396226,8.40240137 C7.43396226,8.08978736 7.68738599,7.83636364 8,7.83636364 C8.31261401,7.83636364 8.56603774,8.08978736 8.56603774,8.40240137 L8.56603774,9.93396226 L6,12.5 L8.5,15 L1,15 L1,1 L15,1 L15,10.5170556 Z M15,14.8435667 L15,15 L14.8647278,15 L15,14.8435667 Z M3.01886792,8.92727273 L3.01886792,5 L2,5 L2.00060209,8.92727273 C2.02600931,10.076925 2.85231133,11 3.86792453,11 C4.89955076,11 5.73584906,10.0475876 5.73584906,8.87272727 C5.73584906,7.69786699 4.89955076,6.74545455 3.86792453,6.74545455 C3.69131672,6.74545455 3.52043344,6.77336713 3.35849057,6.82552992 L3.35849057,8.02968125 C3.50039518,7.90829346 3.6767839,7.83636364 3.86792453,7.83636364 C4.33684554,7.83636364 4.71698113,8.26927838 4.71698113,8.80330579 C4.71698113,9.33733319 4.33684554,9.77024793 3.86792453,9.77024793 C3.43588445,9.77024793 3.07921296,9.40275326 3.02578064,8.92727273 L3.01886792,8.92727273 Z"/>
    <polygon fill="#62B543" points="13.75 10.75 17.25 14.25 10.25 14.25" transform="rotate(90 13.75 12.5)"/>
    <polygon fill="#F26522" points="9.25 10.75 12.75 14.25 5.75 14.25" transform="rotate(-90 9.25 12.5)"/>
  </g>
</svg>

<svg xmlns="http://www.w3.org/2000/svg" width="16" height="16" viewBox="0 0 16 16"><rect id="frame" width="16" height="16" fill="none"/><g fill="none" fill-rule="evenodd"><path fill="#941100" fill-rule="nonzero" d="M15 10.517l-1.068-1.075c.04-.164.063-.337.067-.515L14 5h-1.019v3.484L12.5 8h-.84a.774.774 0 0 1 .472-.164.78.78 0 0 1 .51.194V6.826a1.657 1.657 0 0 0-.51-.08c-.797 0-1.477.567-1.745 1.367l-.802.802v-.911c0-.695-.563-1.259-1.258-1.259h-.654c-.695 0-1.258.564-1.258 1.259v2.887h1.019V8.402a.566.566 0 0 1 1.132 0v1.532L6 12.5 8.5 15H1V1h14v9.517zm0 4.327V15h-.135l.135-.156zM3.019 8.927V5H2v3.927C2.027 10.077 2.853 11 3.869 11c1.032 0 1.868-.952 1.868-2.127 0-1.175-.836-2.128-1.868-2.128-.177 0-.348.028-.51.08V8.03a.78.78 0 0 1 .51-.194c.469 0 .849.433.849.967s-.38.967-.85.967c-.431 0-.788-.367-.841-.843h-.007z"/><path fill="#62B543" d="M15.5 12.5L12 16V9z"/><path fill="#F26522" d="M7.5 12.5L11 9v7z"/></g></svg>
